X: 22113
T: Konvulsionslåten
R: march
M: 
K: Adorian
M:2/4
A/|A/B/c/A/ BB/A/|A/B/c/A/ BB/A/|A/B/c/d/ ed/c/|B/c/B A3/2:|
|:g/|g/e/g/e/ ge/f/|f/d/f/d/ fd/g/|g/e/g/a/ a/g/f/e/|e/f/g/a/ a<a|
a/g/f/e/ e<c|g/f/e/d/ d<B|A/B/c/d/ ed/c/|B/c/B A3:|

